X: 1
T: Dunsmuir Strathspey
T: 3x32S 3C set (Drewry, Bankhead 1)
T: No title tune specified; this set arr. by Calum Pasqua
P: The Waulkin' o' the Fold
R: strathspey
C: arr. T. Traub 7-6-11, from Calum Pasqua arr.
M: 4/4
L: 1/8
K: G
R: strathspey
E|"Am"E<AA>B A2 g>e|"G"d>B!beambr1!A<G "C"E2 D>E|"G"G>AB>A G<ED>E|"G"G>AB>A "Em"G<ED>G|"Am"E<AA>B A2 G>A|
"G"B>A!beambr1!B<d "C"e2 ga|"G"(3bag (3age "D"de/f/ "G"g>B|"Em"A>G!beambr1!E<G "Am"A2 || B2| "Am"A<aa>b "D"a2 g>a|"G"b2 a>g "C"e2 d<e|
"G"g>a!beambr1!g<b G>A!beambr1!B<G|"G"g/f/g/a/ g<b "G"G>A!beambr1!B<G|"Am"A<aa>b a2 g>f|"C"e>d!beambr1!e<g "D"a2 g>a|"G"(3bag (3age "D"de/f/ "G"g>B|"Em"A>G!beambr1!E<G "Am"A2 |]